assets/logos/white_logo/sg-1000.svg

<?xml version="1.0" encoding="UTF-8"?>
<svg width="468px" height="127px" viewBox="0 0 468 127" version="1.1" xmlns="http://www.w3.org/2000/svg" xmlns:xlink="http://www.w3.org/1999/xlink">
    <title>syslogo</title>
    <g id="Page-1" stroke="none" stroke-width="1" fill="none" fill-rule="evenodd">
        <g id="syslogo" fill="#FFFFFF" fill-rule="nonzero">
            <g id="SG-1000_logo" transform="translate(0.000000, 69.000000)">
                <path d="M0,22.6236797 L0,13.2186798 C0,4.85867994 4.17923995,0.678679991 12.5399998,0.678679991 L68.9699991,0.678679991 L68.9699991,13.2186798 L12.5399998,13.2186798 L12.5399998,22.6236797 L56.4299993,22.6236797 C64.7899992,22.6236797 68.9699991,26.8036797 68.9699991,35.1636796 L68.9699991,44.5686794 C68.9699991,52.9294393 64.7899992,57.1086793 56.4299993,57.1086793 L0,57.1086793 L0,44.5686794 L56.4299993,44.5686794 L56.4299993,35.1636796 L12.5399998,35.1636796 C4.17923995,35.1636796 0,30.9844396 0,22.6236797 Z" id="Path"></path>
                <path d="M75.2399991,44.5686794 L75.2399991,13.2186798 C75.2399991,4.85867994 79.419239,0.678679991 87.7799989,0.678679991 L144.209998,0.678679991 L144.209998,13.2186798 L87.7799989,13.2186798 L87.7799989,44.5686794 L131.669998,44.5686794 L131.669998,35.1636796 L106.589999,35.1636796 L106.589999,22.6236797 L144.209998,22.6236797 L144.209998,57.1086793 L87.7799989,57.1086793 C79.419239,57.1086793 75.2399991,52.9294393 75.2399991,44.5686794 Z" id="Path"></path>
                <polygon id="Path" points="150.479998 35.1636796 150.479998 22.6236797 172.424998 22.6236797 172.424998 35.1636796"></polygon>
                <polygon id="Path" points="178.694998 57.1086793 178.694998 44.5686794 197.504998 44.5686794 197.504998 13.2186798 178.694998 13.2186798 178.694998 0.678679991 213.179997 0.678679991 213.179997 44.5686794 231.989997 44.5686794 231.989997 57.1086793"></polygon>
                <path d="M310.364996,44.5686794 C310.364996,52.9294393 306.184996,57.1086793 297.824996,57.1086793 L250.799997,57.1086793 C242.439237,57.1086793 238.259997,52.9294393 238.259997,44.5686794 L238.259997,13.2186798 C238.259997,4.85867994 242.439237,0.678679991 250.799997,0.678679991 L297.824996,0.678679991 C306.184996,0.678679991 310.364996,4.85867994 310.364996,13.2186798 L310.364996,44.5686794 Z M297.824996,44.5686794 L297.824996,13.2186798 L250.799997,13.2186798 L250.799997,44.5686794 L297.824996,44.5686794 Z" id="Shape"></path>
                <path d="M388.739995,44.5686794 C388.739995,52.9294393 384.559995,57.1086793 376.199995,57.1086793 L329.174996,57.1086793 C320.814996,57.1086793 316.634996,52.9294393 316.634996,44.5686794 L316.634996,13.2186798 C316.634996,4.85867994 320.814996,0.678679991 329.174996,0.678679991 L376.199995,0.678679991 C384.559995,0.678679991 388.739995,4.85867994 388.739995,13.2186798 L388.739995,44.5686794 Z M376.199995,44.5686794 L376.199995,13.2186798 L329.174996,13.2186798 L329.174996,44.5686794 L376.199995,44.5686794 Z" id="Shape"></path>
                <path d="M467.114994,44.5686794 C467.114994,52.9294393 462.934994,57.1086793 454.574994,57.1086793 L407.549995,57.1086793 C399.189995,57.1086793 395.009995,52.9294393 395.009995,44.5686794 L395.009995,13.2186798 C395.009995,4.85867994 399.189995,0.678679991 407.549995,0.678679991 L454.574994,0.678679991 C462.934994,0.678679991 467.114994,4.85867994 467.114994,13.2186798 L467.114994,44.5686794 Z M454.574994,44.5686794 L454.574994,13.2186798 L407.549995,13.2186798 L407.549995,44.5686794 L454.574994,44.5686794 Z" id="Shape"></path>
            </g>
            <g id="SEGA_logo">
                <path d="M114.24798,-5.6250029e-07 C119.152044,-5.6250029e-07 123.253078,2.76672654 125.094687,6.75189923 L125.214098,7.01936552 L138.239992,45.8795488 L77.9263442,45.8726368 C74.2407071,45.8726368 70.8871265,44.4520535 68.3757522,42.1355531 L68.1094615,41.8839522 L68.1094615,45.8689504 L46.5748964,45.8726368 C41.1595943,45.8726368 36.4653098,42.8158228 34.1224965,38.346924 L33.9761644,38.0597733 L33.9167212,38.2307301 C31.9736813,42.3088098 26.4550568,45.7256301 20.8172558,45.8645685 L20.4788724,45.8689504 L-3.62376795e-12,45.8726368 L-3.62376795e-12,27.4005483 L4.58265573,27.4079211 C1.87683829,24.5869037 0.0419327975,20.7793135 0.0419327975,16.580965 C0.0524035053,7.62168105 7.07783159,0.819011836 15.7083238,0.663502126 L16.0247798,0.660786608 L36.3506666,0.643276209 L36.3506666,5.06511284 C38.8233787,2.45995781 42.3244756,0.771847553 46.1882557,0.665648093 L46.575818,0.660325808 L68.1417175,0.660325808 L68.1343447,4.58634157 C70.5680042,2.21363485 73.8423293,0.746888261 77.4919641,0.648554616 L77.8844114,0.643276209 L98.9471173,0.653874608 L98.9641669,19.755416 L103.306285,7.09677992 C105.019079,2.98552247 109.256134,-5.6250029e-07 114.24798,-5.6250029e-07 Z M33.1932652,10.5228277 L15.9446006,10.5228277 L15.7182151,10.5270011 C12.4878659,10.6462859 9.89660101,13.3075153 9.89660101,16.560229 C9.89660101,19.8160949 12.4874258,22.4672738 15.7181851,22.5861002 L20.6927045,22.6535983 C24.6286141,22.7805965 27.7747183,25.9950254 27.7747183,29.942321 C27.7747183,33.892326 24.6290566,37.1138899 20.692731,37.2411725 L20.4507636,37.2450789 L3.17076461,37.2450789 L3.16385261,42.7120098 L20.4332532,42.6944994 L20.7395891,42.6909158 C27.6634646,42.5287605 33.2245996,36.8841724 33.2245996,29.9524586 C33.2245996,23.0071211 27.6634646,17.361888 20.7395891,17.1997169 L20.4332532,17.1961329 L15.948287,17.2205553 L15.8537178,17.2135367 C15.5451099,17.1673044 15.3082359,16.8982886 15.3082359,16.574053 C15.3082359,16.2498173 15.5451099,15.9804207 15.8537178,15.9341192 L15.948287,15.9270898 L33.1863532,15.9307762 L33.1932652,10.5228277 Z M65.0469849,3.83155122 L46.6136036,3.83155122 L46.3242492,3.83531426 C40.555572,3.98552479 35.9103041,8.61406659 35.7595505,14.362781 L35.7557739,14.6511347 L35.7557739,31.8435816 L35.7595505,32.1319626 C35.9103041,37.8813209 40.555572,42.5163465 46.3242492,42.6667694 L46.6136036,42.6705378 L64.9700313,42.6779106 L64.9663449,37.2731877 L46.6136036,37.2796389 L46.3953701,37.2754025 C43.5734842,37.1656527 41.2834228,34.9362224 41.167839,32.0706452 L41.1632615,31.8431208 L41.1632615,14.5916915 L41.1676137,14.378039 C41.2803356,11.6151692 43.5686159,9.36451268 46.3898013,9.25091088 L46.6136036,9.24641179 L65.0469849,9.24963739 L65.0469849,3.83155122 Z M114.243833,3.19887286 L113.959013,3.20315488 C110.273832,3.31412517 107.18729,5.57069398 106.122363,8.65557195 L106.042515,8.90081181 L95.8039406,38.9278729 L95.8040007,17.1998193 L80.460744,17.1998193 L80.460744,22.6008558 L90.3817674,22.6008558 L90.3817674,37.2658149 L77.9645906,37.2658149 L77.7471388,37.2615 C74.9354885,37.1497407 72.6585977,34.8807849 72.5436826,32.0664119 L72.5391317,31.8431208 L72.5391317,14.6506739 L72.5434279,14.4327771 C72.6547073,11.6161238 74.9140529,9.36408817 77.7271017,9.25045101 L77.9503058,9.24595099 L95.8040007,9.24595099 L95.8040007,3.83155122 L77.9088338,3.83155122 L77.619611,3.83531426 C71.8535237,3.98552479 67.2082983,8.61406659 67.0575454,14.362781 L67.0537688,14.6511347 L67.0537688,31.8435816 L67.0575778,32.1319626 C67.2096185,37.8813209 71.894129,42.5163465 77.6610725,42.6667694 L77.9503058,42.6705378 L95.8040007,42.6779106 L95.8039406,42.6728729 L100.271456,42.6737634 L111.451385,9.84453015 L111.528113,9.67562819 C112.018472,8.67900874 113.041946,7.99165346 114.234156,7.99165346 C115.419819,7.99165346 116.448325,8.67900874 116.942757,9.66975112 L117.020153,9.83761815 L126.329234,37.2658149 L111.912646,37.2658149 L111.912646,42.6733026 L133.852254,42.6733026 L122.441926,8.91417501 L122.364686,8.67480879 C121.308634,5.58586048 118.214952,3.31768226 114.535506,3.20339629 L114.243833,3.19887286 Z M114.24752,9.24687259 C113.526275,9.24687259 112.908595,9.67918898 112.633877,10.2965544 L112.580345,10.4315893 L101.620679,42.6733026 L108.017965,42.6733026 L111.901941,31.2198729 L111.891449,36.0350182 L124.581881,36.0350182 L115.915155,10.4315893 C115.681068,9.74315416 115.020742,9.24687259 114.24752,9.24687259 Z M95.8030791,10.5085429 L77.9493842,10.5122293 L77.7427961,10.5172942 C75.6212,10.6215592 73.9198087,12.3229505 73.8155436,14.4445466 L73.8104788,14.6511347 L73.8114004,31.8431208 L73.8164652,32.0501426 C73.9207303,34.1763688 75.6221216,35.8868507 77.7437177,35.9916795 L77.9503058,35.9967718 L89.1021259,35.9967718 L89.1021259,23.8800365 L80.4741072,23.8800365 L80.4741072,29.2990442 L83.6762062,29.2990442 L83.6863438,30.5713129 L80.4985296,30.5713129 L80.3696534,30.5646691 C79.7761462,30.5031811 79.3005183,30.0222139 79.2397391,29.427998 L79.2331729,29.2990442 L79.2046033,17.1961329 C79.2068166,17.0895913 79.2543802,16.0432478 80.3171017,15.9180001 L80.4842448,15.9063538 L95.8099911,15.9063538 L95.8030791,10.5085429 Z M33.1863532,3.83155122 L15.948287,3.83155122 L15.6422625,3.83513084 C8.72523625,3.99710598 3.15694061,9.63552731 3.15694061,16.574053 C3.15694061,23.5125786 8.72523625,29.1541326 15.6422625,29.3161986 L15.948287,29.3197802 L20.4088308,29.3266922 L20.4998476,29.333394 C20.7977231,29.377563 21.0345971,29.6349255 21.0345971,29.9524586 C21.0345971,30.2641269 20.7977231,30.5205754 20.4998476,30.5646266 L20.4088308,30.5713129 L3.16385261,30.5851369 L3.17076461,35.975575 L20.4507636,35.975575 L20.6778442,35.9714177 C23.9177655,35.8525895 26.5019888,33.2013288 26.5019888,29.9418602 C26.5019888,26.6859942 23.9177655,24.037896 20.6778442,23.9192096 L15.7030624,23.8623104 C11.7735344,23.7351665 8.62433229,20.5169985 8.62433229,16.5597682 C8.62433229,12.6133758 11.7735344,9.39498199 15.7030624,9.2678248 L15.9446006,9.26392219 L33.1932652,9.26023579 L33.1863532,3.83155122 Z M61.1246556,23.8869485 L42.4779239,23.8869485 L42.4779239,31.8435816 C42.4779239,34.054081 44.2202064,35.8533826 46.4073,35.9604013 L46.6136036,35.9654374 L64.9658841,35.9580646 L64.9695705,30.5777641 L49.1574044,30.5776059 C49.0570047,30.5747072 48.0000729,30.519168 47.8852018,29.4648077 L47.8752739,29.2990442 L61.1246556,29.2990442 L61.1246556,23.8869485 Z M112.311941,30.0118729 L111.901941,31.2198729 L111.905273,30.0119018 L112.311941,30.0118729 Z M114.236921,24.3380717 L116.146015,30.0119018 L112.311941,30.0119018 L114.236921,24.3380717 Z M65.0469849,10.5122293 L46.6136036,10.5122293 C44.3932739,10.5122293 42.5967074,12.2545119 42.4898635,14.4445466 L42.4848359,14.6511347 L42.4783847,22.6008558 L61.1251164,22.6008558 L61.1251164,17.1998193 L47.8757347,17.1998193 L47.8849078,17.0898214 C47.9214332,16.7996545 48.102736,16.0299063 48.9996839,15.9452743 L49.1655139,15.9376882 L65.0469849,15.9376882 L65.0469849,10.5122293 Z" id="Shape"></path>
                <path d="M129.717035,8.12805025 C130.738168,8.12805025 131.699397,7.72945828 132.419627,7.01291432 C133.139397,6.28945836 133.541675,5.33514162 133.541675,4.31446959 C133.541675,3.30070965 133.139397,2.34961851 132.419627,1.62616255 C131.699397,0.913304993 130.738168,0.514713016 129.717035,0.514713016 C127.616248,0.514713016 125.899768,2.21736891 125.899768,4.31493039 C125.899768,5.33560242 126.29836,6.28991916 127.025042,7.01337512 C127.742047,7.72945828 128.699589,8.12805025 129.717035,8.12805025 M126.438444,4.31400879 C126.438444,3.44355764 126.773906,2.61872569 127.399212,1.99987133 C128.021752,1.38101696 128.846584,1.04555458 129.717035,1.04555458 C130.598085,1.04555458 131.422917,1.38147776 132.045458,1.99987133 C132.664312,2.61872569 133.007147,3.44355764 133.007147,4.31400879 C133.007147,6.12126637 131.531666,7.58937509 129.717035,7.58937509 C128.846124,7.58937509 128.021292,7.25022631 127.399212,6.63137194 C126.773445,6.01297838 126.438444,5.19137203 126.438444,4.31400879 Z" id="Shape"></path>
                <path d="M128.738296,4.63564726 L128.738296,6.43230636 L128.185797,6.43230636 L128.185797,2.20953532 L129.755282,2.20953532 C130.346488,2.21644731 130.692549,2.21644731 131.021099,2.4643577 C131.339051,2.69890489 131.472223,3.05187767 131.472223,3.44355764 C131.472223,4.42966958 130.668587,4.55869358 130.464914,4.60062637 L131.653778,6.43230636 L130.986079,6.43230636 L129.82901,4.63564726 L128.738296,4.63564726 M128.738296,4.1707 L129.860344,4.1707 C130.039135,4.1707 130.206866,4.1707 130.374597,4.1287672 C130.766277,4.03430321 130.905899,3.75459762 130.905899,3.44724404 C130.905899,3.33526965 130.895301,3.05233847 130.653842,2.85649848 C130.433119,2.67125689 130.153874,2.67816889 129.82901,2.67816889 L128.738296,2.67816889 L128.738296,4.1707 L128.738296,4.1707 Z" id="Shape"></path>
            </g>
        </g>
    </g>
</svg>

<?xml version="1.0" encoding="UTF-8" standalone="no"?>
<svg
   xmlns:dc="http://purl.org/dc/elements/1.1/"
   xmlns:cc="http://creativecommons.org/ns#"
   xmlns:rdf="http://www.w3.org/1999/02/22-rdf-syntax-ns#"
   xmlns:svg="http://www.w3.org/2000/svg"
   xmlns="http://www.w3.org/2000/svg"
   xmlns:sodipodi="http://sodipodi.sourceforge.net/DTD/sodipodi-0.dtd"
   xmlns:inkscape="http://www.inkscape.org/namespaces/inkscape"
   width="500"
   height="200"
   viewBox="0 0 500 200"
   version="1.1"
   id="svg117"
   sodipodi:docname="sg-1000.svg"
   inkscape:version="0.92.5 (2060ec1f9f, 2020-04-08)">
  <metadata
     id="metadata123">
    <rdf:RDF>
      <cc:Work
         rdf:about="">
        <dc:format>image/svg+xml</dc:format>
        <dc:type
           rdf:resource="http://purl.org/dc/dcmitype/StillImage" />
        <dc:title>syslogo</dc:title>
      </cc:Work>
    </rdf:RDF>
  </metadata>
  <defs
     id="defs121" />
  <sodipodi:namedview
     pagecolor="#ffffff"
     bordercolor="#666666"
     borderopacity="1"
     objecttolerance="10"
     gridtolerance="10"
     guidetolerance="10"
     inkscape:pageopacity="0"
     inkscape:pageshadow="2"
     inkscape:window-width="1366"
     inkscape:window-height="740"
     id="namedview119"
     showgrid="false"
     inkscape:pagecheckerboard="true"
     inkscape:zoom="1.2479968"
     inkscape:cx="234"
     inkscape:cy="63.5"
     inkscape:window-x="0"
     inkscape:window-y="0"
     inkscape:window-maximized="1"
     inkscape:current-layer="svg117" />
  <title
     id="title93">syslogo</title>
  <g
     id="Page-1"
     style="fill:none;fill-rule:evenodd;stroke:none;stroke-width:1"
     transform="matrix(1.0548925,0,0,1.0548925,3.2051364,39.635208)">
    <g
       id="syslogo"
       style="fill:#ffffff;fill-rule:nonzero">
      <g
         id="SG-1000_logo"
         transform="translate(0,69)">
        <path
           d="m 0,22.62368 v -9.405 C 0,4.8586799 4.17924,0.67867999 12.54,0.67867999 H 68.969999 V 13.21868 H 12.54 v 9.405 h 43.889999 c 8.36,0 12.54,4.18 12.54,12.54 v 9.404999 c 0,8.36076 -4.18,12.54 -12.54,12.54 H 0 v -12.54 H 56.429999 V 35.16368 H 12.54 C 4.17924,35.16368 0,30.98444 0,22.62368 Z"
           id="Path"
           inkscape:connector-curvature="0" />
        <path
           d="M 75.239999,44.568679 V 13.21868 c 0,-8.3600001 4.17924,-12.54000001 12.54,-12.54000001 H 144.21 V 13.21868 H 87.779999 V 44.568679 H 131.67 V 35.16368 h -25.08 v -12.54 h 37.62 V 57.108679 H 87.779999 c -8.36076,0 -12.54,-4.17924 -12.54,-12.54 z"
           id="path96"
           inkscape:connector-curvature="0" />
        <polygon
           id="polygon98"
           points="172.425,22.62368 172.425,35.16368 150.48,35.16368 150.48,22.62368 " />
        <polygon
           id="polygon100"
           points="213.18,0.67867999 213.18,44.568679 231.99,44.568679 231.99,57.108679 178.695,57.108679 178.695,44.568679 197.505,44.568679 197.505,13.21868 178.695,13.21868 178.695,0.67867999 " />
        <path
           d="m 310.365,44.568679 c 0,8.36076 -4.18,12.54 -12.54,12.54 H 250.8 c -8.36076,0 -12.54,-4.17924 -12.54,-12.54 V 13.21868 c 0,-8.3600001 4.17924,-12.54000001 12.54,-12.54000001 h 47.025 c 8.36,0 12.54,4.17999991 12.54,12.54000001 z m -12.54,0 V 13.21868 H 250.8 v 31.349999 z"
           id="Shape"
           inkscape:connector-curvature="0" />
        <path
           d="m 388.74,44.568679 c 0,8.36076 -4.18,12.54 -12.54001,12.54 H 329.175 c -8.36,0 -12.54,-4.17924 -12.54,-12.54 V 13.21868 c 0,-8.3600001 4.18,-12.54000001 12.54,-12.54000001 h 47.02499 c 8.36001,0 12.54001,4.17999991 12.54001,12.54000001 z m -12.54001,0 V 13.21868 H 329.175 v 31.349999 z"
           id="path103"
           inkscape:connector-curvature="0" />
        <path
           d="m 467.11499,44.568679 c 0,8.36076 -4.18,12.54 -12.54,12.54 H 407.55 c -8.36001,0 -12.54001,-4.17924 -12.54001,-12.54 V 13.21868 c 0,-8.3600001 4.18,-12.54000001 12.54001,-12.54000001 h 47.02499 c 8.36,0 12.54,4.17999991 12.54,12.54000001 z m -12.54,0 V 13.21868 H 407.55 v 31.349999 z"
           id="path105"
           inkscape:connector-curvature="0" />
      </g>
      <g
         id="SEGA_logo">
        <path
           d="m 114.24798,-5.6250029e-7 c 4.90406,0 9.0051,2.76672706250029 10.84671,6.75189976250029 l 0.11941,0.2674663 13.02589,38.8601835 -60.313646,-0.0069 c -3.685637,0 -7.039218,-1.420584 -9.550592,-3.737084 l -0.266291,-0.251601 v 3.984998 l -21.534565,0.0037 c -5.415302,0 -10.109586,-3.056814 -12.4524,-7.525713 l -0.146332,-0.287151 -0.05944,0.170957 c -1.94304,4.07808 -7.461664,7.4949 -13.099465,7.633838 L 20.478872,45.86895 0,45.872637 V 27.400548 l 4.5826557,0.0074 C 1.8768383,24.586904 0.0419328,20.779313 0.0419328,16.580965 0.05240351,7.621681 7.0778316,0.81901184 15.708324,0.66350213 l 0.316456,-0.002716 20.325887,-0.0175104 V 5.0651128 c 2.472712,-2.605155 5.973809,-4.29326525 9.837589,-4.39946471 l 0.387562,-0.005322 h 21.565899 l -0.0074,3.92601581 c 2.433659,-2.3727067 5.707984,-3.83945336 9.357619,-3.937787 l 0.392447,-0.005278 21.062706,0.0105984 0.01705,19.1015417 4.342121,-12.6586364 C 105.01908,2.9855225 109.25613,-5.6250029e-7 114.24798,-5.6250029e-7 Z M 33.193265,10.522828 H 15.944601 l -0.226386,0.0042 c -3.230349,0.119285 -5.821614,2.780514 -5.821614,6.033228 0,3.255866 2.590825,5.907045 5.821584,6.025871 l 4.97452,0.0675 c 3.935909,0.126999 7.082013,3.341427 7.082013,7.288723 0,3.950005 -3.145661,7.171569 -7.081987,7.298851 l -0.241967,0.0039 H 3.1707646 l -0.00691,5.466931 17.2694004,-0.01751 0.306336,-0.0036 C 27.663465,42.52876 33.2246,36.884172 33.2246,29.952459 c 0,-6.945338 -5.561135,-12.590571 -12.485011,-12.752742 l -0.306336,-0.0036 -4.484966,0.02442 -0.09457,-0.007 c -0.308608,-0.04623 -0.545482,-0.315248 -0.545482,-0.639484 0,-0.324236 0.236874,-0.593632 0.545482,-0.639934 l 0.09457,-0.007 17.238066,0.0037 z M 65.046985,3.8315512 H 46.613604 l -0.289355,0.00376 C 40.555572,3.9855248 35.910304,8.6140666 35.759551,14.362781 l -0.0038,0.288354 v 17.192447 l 0.0038,0.288381 c 0.150753,5.749358 4.796021,10.384383 10.564698,10.534806 l 0.289355,0.0038 18.356427,0.0074 -0.0037,-5.404723 -18.352741,0.0065 -0.218234,-0.0042 c -2.821886,-0.109749 -5.111947,-2.33918 -5.227531,-5.204757 l -0.0046,-0.227524 V 14.591692 l 0.0044,-0.213653 c 0.112722,-2.76287 2.401002,-5.0135263 5.222187,-5.1271281 l 0.223803,-0.0045 18.433381,0.00323 z m 49.196845,-0.6326783 -0.28482,0.00428 c -3.68518,0.1109703 -6.77172,2.3675391 -7.83665,5.4524171 l -0.0799,0.2452398 -10.238569,30.0270612 6e-5,-21.728054 H 80.460744 v 5.401037 h 9.921023 V 37.265815 H 77.964591 l -0.217452,-0.0043 C 74.935489,37.149756 72.658598,34.8808 72.543683,32.066427 l -0.0046,-0.223291 V 14.650674 l 0.0043,-0.217897 c 0.111279,-2.816653 2.370625,-5.0686888 5.183674,-5.182326 l 0.223204,-0.0045 h 17.85374 V 3.8315512 H 77.908834 l -0.289223,0.00376 C 71.853524,3.9855248 67.208298,8.6140666 67.057545,14.362781 l -0.0038,0.288354 v 17.192447 l 0.0038,0.288381 c 0.152041,5.749358 4.836551,10.384383 10.603495,10.534806 l 0.289233,0.0038 17.853695,0.0074 -6e-5,-0.005 4.467522,8.9e-4 11.17993,-32.8292328 0.0767,-0.168902 c 0.49036,-0.9966195 1.51384,-1.6839747 2.70605,-1.6839747 1.18566,0 2.21416,0.6873552 2.7086,1.6780976 l 0.0774,0.1678671 9.30908,27.4281968 h -14.41658 v 5.407488 h 21.9396 L 122.44193,8.914175 122.36469,8.6748088 c -1.05606,-3.0889483 -4.14974,-5.3571265 -7.82918,-5.4714125 z m 0.004,6.0479997 c -0.72125,0 -1.33892,0.4323164 -1.61364,1.0496814 l -0.0535,0.135035 -10.95966,32.241714 h 6.39729 l 3.88397,-11.45343 -0.0105,4.815145 h 12.69043 L 115.9155,10.431589 c -0.23409,-0.6884348 -0.89442,-1.1847164 -1.66764,-1.1847164 z m -18.444441,1.2616704 -17.853695,0.0037 -0.206588,0.0051 c -2.121596,0.104265 -3.822987,1.805656 -3.927252,3.927253 l -0.0051,0.206588 9.21e-4,17.191986 0.0051,0.207022 c 0.104265,2.126226 1.805657,3.836708 3.927253,3.941536 l 0.206588,0.0051 h 11.15182 V 23.880036 h -8.628019 v 5.419008 h 3.202099 l 0.01014,1.272269 H 80.49853 l -0.128877,-0.0066 c -0.593507,-0.06149 -1.069135,-0.542455 -1.129914,-1.136671 l -0.0066,-0.128954 -0.02857,-12.102911 c 0.0022,-0.106542 0.04978,-1.152885 1.112499,-1.278133 l 0.167143,-0.01165 h 15.32578 z M 33.186353,3.8315512 H 15.948287 l -0.306025,0.00358 C 8.7252363,3.997106 3.1569406,9.6355273 3.1569406,16.574053 c 0,6.938526 5.5682957,12.58008 12.4853214,12.742146 l 0.306025,0.0036 4.460544,0.0069 0.09102,0.0067 c 0.297875,0.04417 0.534749,0.301532 0.534749,0.619065 0,0.311668 -0.236874,0.568116 -0.534749,0.612168 l -0.09102,0.0067 -17.2449784,0.01382 0.00691,5.390438 H 20.450764 l 0.22708,-0.0042 c 3.239922,-0.118829 5.824145,-2.770089 5.824145,-6.029558 0,-3.255866 -2.584223,-5.903964 -5.824145,-6.02265 l -4.974782,-0.0569 C 11.773534,23.735138 8.6243323,20.51697 8.6243323,16.55974 c 0,-3.946392 3.1492017,-7.164786 7.0787297,-7.2919432 l 0.241539,-0.0039 17.248664,-0.00369 z M 61.124656,23.886948 H 42.477924 v 7.956634 c 0,2.210499 1.742282,4.009801 3.929376,4.116819 l 0.206304,0.005 18.35228,-0.0074 0.0037,-5.380301 -15.812167,-1.58e-4 c -0.100399,-0.0029 -1.157331,-0.05844 -1.272202,-1.112798 l -0.0099,-0.165764 h 13.249382 z m 51.187284,6.124925 -0.41,1.208 0.003,-1.207971 z m 1.92498,-5.673801 1.9091,5.67383 h -3.83408 z M 65.046985,10.512229 H 46.613604 c -2.22033,0 -4.016897,1.742283 -4.123741,3.932318 l -0.005,0.206588 -0.0065,7.949721 H 61.125116 V 17.199819 H 47.875735 l 0.0092,-0.109998 c 0.03652,-0.290167 0.217828,-1.059915 1.114776,-1.144547 l 0.16583,-0.0076 h 15.881471 z"
           id="path108"
           inkscape:connector-curvature="0" />
        <path
           d="m 129.71703,8.1280502 c 1.02114,0 1.98237,-0.3985919 2.7026,-1.1151359 0.71977,-0.7234559 1.12204,-1.6777727 1.12204,-2.6984447 0,-1.0137599 -0.40227,-1.9648511 -1.12204,-2.6883071 -0.72023,-0.71285751 -1.68146,-1.11144948 -2.7026,-1.11144948 -2.10078,0 -3.81726,1.70265588 -3.81726,3.80021738 0,1.020672 0.39859,1.9749888 1.12527,2.6984447 0.71701,0.7160832 1.67455,1.1146751 2.69199,1.1146751 m -3.27859,-3.8140414 c 0,-0.8704512 0.33547,-1.6952831 0.96077,-2.3141375 0.62254,-0.6188543 1.44737,-0.9543167 2.31782,-0.9543167 0.88105,0 1.70589,0.3359232 2.32843,0.9543167 0.61885,0.6188544 0.96169,1.4436863 0.96169,2.3141375 0,1.8072576 -1.47548,3.2753663 -3.29012,3.2753663 -0.87091,0 -1.69574,-0.3391488 -2.31782,-0.9580032 -0.62577,-0.6183935 -0.96077,-1.4399999 -0.96077,-2.3173631 z"
           id="path110"
           inkscape:connector-curvature="0" />
        <path
           d="m 128.7383,4.6356473 v 1.7966591 h -0.5525 V 2.2095353 h 1.56948 c 0.59121,0.00691 0.93727,0.00691 1.26582,0.2548224 0.31795,0.2345472 0.45112,0.58752 0.45112,0.9791999 0,0.986112 -0.80363,1.115136 -1.00731,1.1570688 l 1.18887,1.83168 h -0.6677 l -1.15707,-1.7966591 h -1.09071 m 0,-0.4649473 h 1.12204 c 0.17879,0 0.34653,0 0.51426,-0.041933 0.39168,-0.094464 0.5313,-0.3741696 0.5313,-0.6815232 0,-0.1119743 -0.0106,-0.3949055 -0.25206,-0.5907455 -0.22072,-0.1852416 -0.49997,-0.1783296 -0.82483,-0.1783296 h -1.09071 z"
           id="path112"
           inkscape:connector-curvature="0" />
      </g>
    </g>
  </g>
</svg>
